svgs/sharp-light/mobile-signal-out.svg

<svg xmlns="http://www.w3.org/2000/svg" viewBox="0 0 512 512"><!--! Font Awesome Pro 6.6.0 by @fontawesome - https://fontawesome.com License - https://fontawesome.com/license (Commercial License) Copyright 2024 Fonticons, Inc. --><path d="M64 32l160 0 0-32L64 0 32 0l0 32 0 448 0 32 32 0 256 0 32 0 0-32 0-192-32 0 0 192L64 480 64 32zm96 368l-16 0 0 32 16 0 64 0 16 0 0-32-16 0-64 0zM256 32c123.7 0 224 100.3 224 224l32 0C512 114.6 397.4 0 256 0l0 32zm32 224a32 32 0 1 0 0-64 32 32 0 1 0 0 64zm96 0l32 0c0-88.4-71.6-160-160-160l0 32c70.7 0 128 57.3 128 128z"/></svg>

<svg xmlns="http://www.w3.org/2000/svg" viewBox="0 0 512 512"><!--! Font Awesome Pro 6.4.2 by @fontawesome - https://fontawesome.com License - https://fontawesome.com/license (Commercial License) Copyright 2023 Fonticons, Inc. --><path d="M64 32H224V0H64 32V32 480v32H64 320h32V480 288H320V480H64V32zm96 368H144v32h16 64 16V400H224 160zM256 32c123.7 0 224 100.3 224 224h32C512 114.6 397.4 0 256 0V32zm32 224a32 32 0 1 0 0-64 32 32 0 1 0 0 64zm96 0h32c0-88.4-71.6-160-160-160v32c70.7 0 128 57.3 128 128z"/></svg>
